images/facebook.svg

<svg width="20" height="21" viewBox="0 0 20 21" fill="none" xmlns="http://www.w3.org/2000/svg">
<path d="M14.7277 3.67969H12.3593C11.3124 3.67969 10.3083 4.02028 9.56802 4.62654C8.82775 5.2328 8.41188 6.05507 8.41188 6.91245V8.8521H6.04346V11.4383H8.41188V16.6107H11.5697V11.4383H13.9382L14.7277 8.8521H11.5697V6.91245C11.5697 6.74097 11.6529 6.57652 11.801 6.45527C11.9491 6.33401 12.1499 6.26589 12.3593 6.26589H14.7277V3.67969Z" fill="white" stroke="white" stroke-width="1.03448" stroke-linecap="round" stroke-linejoin="round"/>
</svg>

<svg width="20" height="21" fill="none" xmlns="http://www.w3.org/2000/svg"><path d="M14.728 3.68h-2.369c-1.047 0-2.05.34-2.791.947-.74.606-1.156 1.428-1.156 2.285v1.94H6.043v2.586h2.369v5.173h3.158v-5.173h2.368l.79-2.586H11.57v-1.94c0-.171.083-.335.231-.457a.886.886 0 01.558-.19h2.369V3.68z" fill="#fff" stroke="#fff" stroke-width="1.034" stroke-linecap="round" stroke-linejoin="round"/></svg>
